resources/icons/20px/helicopter.svg

<svg width="20" height="20" viewBox="0 0 20 20" fill="none" xmlns="http://www.w3.org/2000/svg">
<path fill-rule="evenodd" clip-rule="evenodd" d="M10 3V5H7H6H1V3.5C1 3.22386 0.776142 3 0.5 3C0.223858 3 0 3.22386 0 3.5V8.5C0 8.77614 0.223858 9 0.5 9C0.776142 9 1 8.77614 1 8.5V7L6 9C6 10.5403 6.82377 12.5748 9 13.8348V16H5.5C5.22386 16 5 16.2238 5 16.5C5 16.7761 5.22386 17 5.5 17H9.49644L9.5 17L9.50356 17H14.4964L14.5 17L14.5036 17H16.5C16.5776 17 16.6542 16.9819 16.7236 16.9472L18.7236 15.9472C18.9706 15.8237 19.0707 15.5234 18.9472 15.2764C18.8237 15.0294 18.5234 14.9293 18.2764 15.0528L16.382 16H15V14.9C17.2822 14.4367 19 12.419 19 10C19 7.23858 16.7614 5 14 5H13V3H19.5C19.7761 3 20 2.77614 20 2.5C20 2.22386 19.7761 2 19.5 2H13H10H3.5C3.22386 2 3 2.22386 3 2.5C3 2.77614 3.22386 3 3.5 3H10ZM14 16V15C12.3923 15 11.0718 14.7415 10 14.3169V16H14ZM14 10V9V6C16.2091 6 18 7.79086 18 10H14Z" fill="black"/>
</svg>

<svg xmlns="http://www.w3.org/2000/svg" viewBox="0 0 20 20">
  <path d="M10 3v2H1V3.5a.5.5 0 0 0-1 0v5a.5.5 0 0 0 1 0V7l5 2c0 1.54.824 3.575 3 4.835V16H5.5a.5.5 0 1 0 0 1h11a.5.5 0 0 0 .224-.053l2-1a.5.5 0 1 0-.448-.894L16.382 16H15v-1.1A5.002 5.002 0 0 0 14 5h-1V3h6.5a.5.5 0 0 0 0-1h-16a.5.5 0 0 0 0 1zm4 13v-1c-1.608 0-2.928-.258-4-.683V16zm0-6V6a4 4 0 0 1 4 4z"/>
</svg>
